X:1
T:Corn Rigs ane Bonny
M:4/4
L:1/8
K:F
 C2| F2F-G A2G-F|E-DE-F G2 C2|F-E-F-GA-BA-G| F2-c-d c2| C2| F2F-G A2G-F|\
E-DE-F G2 C2| D2F-DG-FE-D| C2-F-G F2|| z C| F2 c2 A2 F2|E-DE-F G2 C2|\
 F2 c2A-BA-G| F2-c-d c3| C| F2 c2d-cB-A|B-AG-F G2 C2| D2F-DG-FE-D|\
 C2-F-G F2||
